X: 881
T: Father Dollard's Hornpipe   #2
R: hornpipe
%S: s:3 b:16(4+4+4+4)
B: Francis O'Neill: "The Dance Music of Ireland" (1907) #881
Z: Frank Nordberg - http://www.musicaviva.com
F: http://www.musicaviva.com/abc/tunes/ireland/oneill-1001/0881/oneill-1001-0881-1.abc
N: Compacted via repeats and multiple endings [JC]
M: C|
L: 1/8
K: D
"^A"[|] D2 |: D2(3DDD DFAA | defe dcBA |[1,3 FAA2 BAA2 | GFED CEA,C :|[2,4 FAAA BAGE | D2(3DDD D2 :|
"^B"|: (de) \
| f>d (3dcd A>d (3dcd | f>d (3dcd bgaf | gfec Acef | (3(gag) b>g agfg ||
| Adcd (3(Bcd) AF | Adcd (3(Bcd) A2 | Adfa gece | d2(3ddd d2 :|
